poi/svg/1719.svg

<?xml version="1.0" encoding="UTF-8" standalone="no"?>
<svg
   xmlns:dc="http://purl.org/dc/elements/1.1/"
   xmlns:cc="http://creativecommons.org/ns#"
   xmlns:rdf="http://www.w3.org/1999/02/22-rdf-syntax-ns#"
   xmlns:svg="http://www.w3.org/2000/svg"
   xmlns="http://www.w3.org/2000/svg"
   xmlns:sodipodi="http://sodipodi.sourceforge.net/DTD/sodipodi-0.dtd"
   xmlns:inkscape="http://www.inkscape.org/namespaces/inkscape"
   inkscape:version="1.0 (4035a4fb49, 2020-05-01)"
   sodipodi:docname="1719.svg"
   id="svg20"
   version="1.2"
   viewBox="0 0 42.519639 42.519639"
   height="14.999999mm"
   width="14.999999mm">
  <metadata
     id="metadata24">
    <rdf:RDF>
      <cc:Work
         rdf:about="">
        <dc:format>image/svg+xml</dc:format>
        <dc:type
           rdf:resource="http://purl.org/dc/dcmitype/StillImage" />
        <dc:title>Qt SVG Document</dc:title>
      </cc:Work>
    </rdf:RDF>
  </metadata>
  <sodipodi:namedview
     inkscape:current-layer="svg20"
     inkscape:window-maximized="0"
     inkscape:window-y="0"
     inkscape:window-x="0"
     inkscape:cy="28.346482"
     inkscape:cx="28.346482"
     inkscape:zoom="5.8410537"
     showgrid="false"
     id="namedview22"
     inkscape:window-height="480"
     inkscape:window-width="1034"
     inkscape:pageshadow="2"
     inkscape:pageopacity="0"
     guidetolerance="10"
     gridtolerance="10"
     objecttolerance="10"
     borderopacity="1"
     bordercolor="#666666"
     pagecolor="#ffffff" />
  <title
     id="title2">Qt SVG Document</title>
  <desc
     id="desc4">Generated with Qt</desc>
  <defs
     id="defs6" />
  <g
     transform="translate(5.25984,5.25984)"
     id="g18"
     stroke-linejoin="bevel"
     stroke-linecap="square"
     fill-rule="evenodd"
     stroke-width="1"
     stroke="#000000"
     fill="none">
    <g
       id="g10"
       font-style="normal"
       font-weight="400"
       font-size="7.8px"
       font-family="'MS Shell Dlg 2'"
       stroke="none"
       fill-opacity="1"
       fill="#b75800">
      <path
         id="path8"
         d="M 37.2598,16 C 37.2598,27.7415 27.7415,37.2598 16,37.2598 4.25851,37.2598 -5.25984,27.7415 -5.25984,16 -5.25984,4.25851 4.25851,-5.25984 16,-5.25984 27.7415,-5.25984 37.2598,4.25851 37.2598,16"
         fill-rule="evenodd"
         vector-effect="non-scaling-stroke" />
    </g>
    <g
       id="g14"
       font-style="normal"
       font-weight="400"
       font-size="7.8px"
       font-family="'MS Shell Dlg 2'"
       transform="translate(16,11.4646)"
       stroke="none"
       fill-opacity="0.94902"
       fill="#ffffff">
      <path
         id="path12"
         d="m 12.5259,-7.68994 c 0.3079,-0.028 0.5424,0.007 0.7033,0.10498 0.161,0.09798 0.2975,0.21696 0.4095,0.35693 0.07,0.06999 0.1399,0.15047 0.2099,0.24146 0.07,0.09098 0.14,0.18546 0.21,0.28344 V 18.4922 c -1.1478,0 -2.2011,-0.0595 -3.1599,-0.1785 C 9.93986,18.1947 9.06152,18.0303 8.26367,17.8203 7.46582,17.6104 6.74495,17.3689 6.10107,17.0959 5.45719,16.823 4.8833,16.5396 4.37939,16.2456 3.76351,15.9237 3.20361,15.5842 2.69971,15.2273 2.1958,14.8704 1.74788,14.4749 1.35596,14.041 1.21598,13.8311 1.19499,13.6666 1.29297,13.5476 c 0.09798,-0.119 0.24495,-0.217 0.44092,-0.2939 0.19596,-0.077 0.40592,-0.147 0.62988,-0.21 0.22396,-0.063 0.39893,-0.1435 0.5249,-0.2415 C 3.2806,12.6343 3.55005,12.4768 3.69702,12.3298 3.84399,12.1829 3.92448,12.0114 3.93848,11.8154 3.95247,11.6195 3.93148,11.3885 3.87549,11.1226 3.8195,10.8566 3.7915,10.5207 3.7915,10.1147 3.7915,9.19092 3.69002,8.37907 3.48706,7.6792 3.2841,6.97933 3.07764,6.38094 2.86768,5.88403 2.65771,5.38713 2.49674,4.9952 2.38477,4.70825 2.27279,4.42131 2.31478,4.22884 2.51074,4.13086 3.57454,3.48698 4.26042,2.78011 4.56836,2.01025 4.83431,1.29639 4.93929,0.596517 4.8833,-0.0893555 4.84131,-0.43929 4.79932,-0.757731 4.75732,-1.04468 4.71533,-1.33162 4.65934,-1.58708 4.58936,-1.81104 c -0.05599,-0.27994 -0.05599,-0.4864 0,-0.61938 C 4.64535,-2.5634 4.73633,-2.68587 4.8623,-2.79785 5.07227,-2.97982 5.19474,-3.17578 5.22974,-3.38574 5.26473,-3.5957 5.29622,-3.79517 5.32422,-3.98413 5.35221,-4.1731 5.4187,-4.33757 5.52368,-4.47754 5.62866,-4.61751 5.84912,-4.7015 6.18506,-4.72949 6.35303,-4.79948 6.4755,-4.86947 6.55249,-4.93945 6.62948,-5.00944 6.69596,-5.09692 6.75195,-5.2019 6.80794,-5.30688 6.86043,-5.43636 6.90942,-5.59033 6.95841,-5.7443 7.0249,-5.94027 7.10889,-6.17822 c 0.08398,-0.028 0.17846,-0.07699 0.28344,-0.14698 0.10498,-0.06998 0.22046,-0.14697 0.34644,-0.23095 0.12598,-0.08399 0.25545,-0.16447 0.38843,-0.24146 0.13297,-0.07698 0.26245,-0.13647 0.38843,-0.17846 0.22395,-0.028 0.45841,-0.07349 0.70336,-0.13648 0.24496,-0.06299 0.52141,-0.13297 0.82931,-0.20996 0.308,-0.07699 0.6614,-0.14697 1.0603,-0.20996 0.399,-0.06299 0.8714,-0.11548 1.4173,-0.15747 M -3.43115,15.5527 c 0.16797,0.168 0.33943,0.364 0.5144,0.5879 0.17497,0.224 0.23446,0.4269 0.17847,0.6089 0,0.028 0,0.07 0,0.126 0,0.056 -0.0245,0.126 -0.07349,0.2099 -0.04899,0.084 -0.13297,0.1785 -0.25195,0.2835 -0.11898,0.105 -0.29745,0.2135 -0.5354,0.3254 -0.47591,0.182 -1.22477,0.357 -2.24658,0.5249 -0.5319,0.098 -1.17578,0.168 -1.93164,0.21 -0.75586,0.042 -1.6377,0.063 -2.64556,0.063 h -0.9658 -2.4985 V -7.68994 c 0.07,-0.06999 0.1505,-0.15397 0.2414,-0.25195 0.091,-0.09799 0.1855,-0.14698 0.2835,-0.14698 0.5319,0 0.9938,0.0175 1.3857,0.05249 0.392,0.035 0.7279,0.07699 1.0078,0.12598 0.28,0.04899 0.5215,0.10848 0.7244,0.17847 0.203,0.06998 0.38144,0.13997 0.53542,0.20996 0.16796,0.06998 0.31144,0.12947 0.43042,0.17846 0.11897,0.049 0.24495,0.08399 0.37793,0.10498 0.13297,0.021 0.27644,0.0175 0.43042,-0.01049 0.15397,-0.028 0.34293,-0.09099 0.56689,-0.18897 0.08398,0.25195 0.25195,0.5599 0.50391,0.92383 0.15397,0.18197 0.25895,0.33944 0.31494,0.47241 0.05599,0.13298 0.08398,0.24846 0.08398,0.34644 0,0.16797 0.06299,0.30094 0.18897,0.39892 0.12597,0.09799 0.27994,0.18547 0.46191,0.26245 0.18197,0.07699 0.37793,0.14698 0.58789,0.20997 0.20996,0.06298 0.39543,0.13647 0.5564,0.22045 0.16097,0.08399 0.28344,0.18547 0.36743,0.30445 0.08398,0.11898 0.09098,0.27645 0.021,0.47241 -0.11198,0.32194 -0.25546,0.57039 -0.43042,0.74536 -0.17497,0.17497 -0.34294,0.34294 -0.50391,0.50391 -0.16097,0.16097 -0.29395,0.33943 -0.39893,0.5354 -0.10498,0.19596 -0.13647,0.47591 -0.09448,0.83984 0,0.11198 0.03849,0.262453 0.11548,0.451418 0.07699,0.188964 0.17847,0.398925 0.30444,0.629882 0.12598,0.230957 0.26245,0.482911 0.40943,0.75586 0.14697,0.272949 0.29044,0.5424 0.43042,0.80835 0.15397,0.27995 0.29744,0.5599 0.43042,0.83984 0.13297,0.27995 0.22745,0.5494 0.28344,0.80835 0.05599,0.25895 0.06999,0.50041 0.042,0.72437 -0.028,0.22396 -0.11898,0.41992 -0.27295,0.58789 -0.06999,0.5459 -0.07349,0.99381 -0.0105,1.34375 0.06299,0.34993 0.16097,0.64038 0.29394,0.87134 0.13298,0.23095 0.29045,0.42342 0.47242,0.57739 0.18196,0.15397 0.34993,0.31144 0.5039,0.47241 0.15397,0.16097 0.27995,0.33944 0.37793,0.5354 0.09798,0.19597 0.13998,0.45492 0.12598,0.77686 -0.028,0.23795 -0.06649,0.43742 -0.11548,0.59839 -0.04899,0.16097 -0.10848,0.30444 -0.17847,0.43045 -0.06998,0.1259 -0.15047,0.2484 -0.24145,0.3674 -0.09098,0.119 -0.18547,0.2554 -0.28345,0.4094 -0.09798,0.154 -0.19246,0.322 -0.28345,0.5039 -0.09098,0.182 -0.17146,0.413 -0.24145,0.6929 -0.06999,0.2799 -0.12598,0.6229 -0.16797,1.0288 -0.04199,0.4059 -0.06299,0.8958 -0.06299,1.4697 0,0.098 0.11898,0.273 0.35694,0.5249 0.13997,0.14 0.25195,0.2485 0.33593,0.3255 0.08399,0.077 0.14698,0.1504 0.18897,0.2204 M -2.54932,-0.929199 C -2.84326,-1.01318 -3.12671,-1.09717 -3.39966,-1.18115 -3.67261,-1.26514 -3.91756,-1.35962 -4.13452,-1.4646 -4.35148,-1.56958 -4.52295,-1.68506 -4.64893,-1.81104 -4.7749,-1.93701 -4.83789,-2.08398 -4.83789,-2.25195 c 0,-0.028 -0.014,-0.08049 -0.04199,-0.15747 -0.028,-0.07699 -0.05949,-0.15398 -0.09449,-0.23096 -0.03499,-0.07699 -0.06648,-0.15397 -0.09448,-0.23096 -0.02799,-0.07698 -0.04199,-0.12947 -0.04199,-0.15747 0.014,-0.08398 0.04549,-0.16097 0.09448,-0.23096 0.04899,-0.06998 0.09798,-0.15047 0.14698,-0.24145 0.04899,-0.09098 0.09798,-0.19946 0.14697,-0.32544 0.04899,-0.12598 0.07348,-0.27995 0.07348,-0.46191 0,-0.12598 0.0455,-0.29395 0.13648,-0.50391 0.09098,-0.20996 0.17147,-0.34294 0.24145,-0.39893 0.11198,-0.06998 0.19947,-0.12247 0.26246,-0.15747 0.06298,-0.03499 0.11547,-0.05949 0.15747,-0.07348 0.04199,-0.014 0.07698,-0.021 0.10498,-0.021 0.02799,0 0.06298,0 0.10498,0 0.26595,-0.08398 0.63688,-0.06999 1.11279,0.04199 0.23796,0.028 0.44442,0.05949 0.61938,0.09449 0.17497,0.03499 0.33244,0.07348 0.47242,0.11547 0.20996,0.09799 0.489905,0.07699 0.83984,-0.06298 0.167969,-0.05599 0.32544,-0.09099 0.472412,-0.10499 0.1469731,-0.01399 0.262452,0 0.346436,0.042 0.181966,0 0.580892,0.04199 1.196782,0.12597 0.55989,0.08399 0.97981,0.12598 1.25976,0.12598 0.11198,-0.11198 0.30094,-0.17497 0.5669,-0.18896 0.26595,-0.014 0.5319,0 0.79785,0.04199 0.26595,0.04199 0.5004,0.09798 0.70337,0.16797 0.20296,0.06998 0.30444,0.13297 0.30444,0.18896 0.04199,0.19596 0.06299,0.34294 0.06299,0.44092 0.04199,0.15397 0.06649,0.28695 0.07348,0.39892 0.007,0.11198 0.0035,0.20997 -0.01049,0.29395 -0.014,0.08398 -0.042,0.18547 -0.08399,0.30444 -0.04199,0.11898 -0.09798,0.24846 -0.16797,0.38843 -0.20996,0.23796 -0.37093,0.48991 -0.48291,0.75586 -0.11198,0.26595 -0.16797,0.49691 -0.16797,0.69287 0,0.23796 -0.06648,0.43042 -0.19946,0.57739 C 3.94198,-0.855713 3.74951,-0.71224 3.49756,-0.572266 3.34359,-0.502279 3.12663,-0.558268 2.84668,-0.740234 2.80469,-0.782227 2.7207,-0.726237 2.59473,-0.572266 2.46875,-0.390299 2.32178,-0.320313 2.15381,-0.362305 H 1.88086 c -0.41992,0 -0.74536,0.027995 -0.976319,0.083985 -0.230957,0.055989 -0.433919,0.115478 -0.608887,0.1784665 -0.174967,0.0629883 -0.3534339,0.1154785 -0.5354,0.1574707 -0.181966,0.0419922 -0.419922,0.0489908 -0.713867,0.0209961 -0.153967,0 -0.391927,-0.139974 -0.713867,-0.4199223 -0.32194,-0.279948 -0.5389,-0.447916 -0.65088,-0.503906 -0.02799,-0.055989 -0.10498,-0.083984 -0.23096,-0.083984"
         fill-rule="evenodd"
         vector-effect="none" />
    </g>
    <g
       id="g16"
       font-style="normal"
       font-weight="400"
       font-size="7.8px"
       font-family="'MS Shell Dlg 2'"
       stroke="none"
       fill-opacity="1"
       fill="#b75800" />
  </g>
</svg>

<?xml version="1.0" encoding="UTF-8" standalone="no"?>
<svg width="11.2889mm" height="11.2889mm"
 viewBox="0 0 32 32"
 xmlns="http://www.w3.org/2000/svg" xmlns:xlink="http://www.w3.org/1999/xlink"  version="1.2" baseProfile="tiny">
<title>Qt SVG Document</title>
<desc>Generated with Qt</desc>
<defs>
</defs>
<g fill="none" stroke="black" stroke-width="1" fill-rule="evenodd" stroke-linecap="square" stroke-linejoin="bevel" >

<g fill="#b75800" fill-opacity="1" stroke="none" transform="matrix(1,0,0,1,0,0)"
font-family="MS Shell Dlg 2" font-size="7.8" font-weight="400" font-style="normal" 
>
<path vector-effect="non-scaling-stroke" fill-rule="evenodd" d="M37.2598,16 C37.2598,27.7415 27.7415,37.2598 16,37.2598 C4.25851,37.2598 -5.25984,27.7415 -5.25984,16 C-5.25984,4.25851 4.25851,-5.25984 16,-5.25984 C27.7415,-5.25984 37.2598,4.25851 37.2598,16 "/>
</g>

<g fill="#ffffff" fill-opacity="0.94902" stroke="none" transform="matrix(1,0,0,1,16,11.4646)"
font-family="MS Shell Dlg 2" font-size="7.8" font-weight="400" font-style="normal" 
>
<path vector-effect="none" fill-rule="evenodd" d="M12.5259,-7.68994 C12.8338,-7.71794 13.0683,-7.68294 13.2292,-7.58496 C13.3902,-7.48698 13.5267,-7.368 13.6387,-7.22803 C13.7087,-7.15804 13.7786,-7.07756 13.8486,-6.98657 C13.9186,-6.89559 13.9886,-6.80111 14.0586,-6.70313 L14.0586,18.4922 C12.9108,18.4922 11.8575,18.4327 10.8987,18.3137 C9.93986,18.1947 9.06152,18.0303 8.26367,17.8203 C7.46582,17.6104 6.74495,17.3689 6.10107,17.0959 C5.45719,16.823 4.8833,16.5396 4.37939,16.2456 C3.76351,15.9237 3.20361,15.5842 2.69971,15.2273 C2.1958,14.8704 1.74788,14.4749 1.35596,14.041 C1.21598,13.8311 1.19499,13.6666 1.29297,13.5476 C1.39095,13.4286 1.53792,13.3306 1.73389,13.2537 C1.92985,13.1767 2.13981,13.1067 2.36377,13.0437 C2.58773,12.9807 2.7627,12.9002 2.88867,12.8022 C3.2806,12.6343 3.55005,12.4768 3.69702,12.3298 C3.84399,12.1829 3.92448,12.0114 3.93848,11.8154 C3.95247,11.6195 3.93148,11.3885 3.87549,11.1226 C3.8195,10.8566 3.7915,10.5207 3.7915,10.1147 C3.7915,9.19092 3.69002,8.37907 3.48706,7.6792 C3.2841,6.97933 3.07764,6.38094 2.86768,5.88403 C2.65771,5.38713 2.49674,4.9952 2.38477,4.70825 C2.27279,4.42131 2.31478,4.22884 2.51074,4.13086 C3.57454,3.48698 4.26042,2.78011 4.56836,2.01025 C4.83431,1.29639 4.93929,0.596517 4.8833,-0.0893555 C4.84131,-0.43929 4.79932,-0.757731 4.75732,-1.04468 C4.71533,-1.33162 4.65934,-1.58708 4.58936,-1.81104 C4.53337,-2.09098 4.53337,-2.29744 4.58936,-2.43042 C4.64535,-2.5634 4.73633,-2.68587 4.8623,-2.79785 C5.07227,-2.97982 5.19474,-3.17578 5.22974,-3.38574 C5.26473,-3.5957 5.29622,-3.79517 5.32422,-3.98413 C5.35221,-4.1731 5.4187,-4.33757 5.52368,-4.47754 C5.62866,-4.61751 5.84912,-4.7015 6.18506,-4.72949 C6.35303,-4.79948 6.4755,-4.86947 6.55249,-4.93945 C6.62948,-5.00944 6.69596,-5.09692 6.75195,-5.2019 C6.80794,-5.30688 6.86043,-5.43636 6.90942,-5.59033 C6.95841,-5.7443 7.0249,-5.94027 7.10889,-6.17822 C7.19287,-6.20622 7.28735,-6.25521 7.39233,-6.3252 C7.49731,-6.39518 7.61279,-6.47217 7.73877,-6.55615 C7.86475,-6.64014 7.99422,-6.72062 8.1272,-6.79761 C8.26017,-6.87459 8.38965,-6.93408 8.51563,-6.97607 C8.73958,-7.00407 8.97404,-7.04956 9.21899,-7.11255 C9.46395,-7.17554 9.7404,-7.24552 10.0483,-7.32251 C10.3563,-7.3995 10.7097,-7.46948 11.1086,-7.53247 C11.5076,-7.59546 11.98,-7.64795 12.5259,-7.68994 M-3.43115,15.5527 C-3.26318,15.7207 -3.09172,15.9167 -2.91675,16.1406 C-2.74178,16.3646 -2.68229,16.5675 -2.73828,16.7495 C-2.73828,16.7775 -2.73828,16.8195 -2.73828,16.8755 C-2.73828,16.9315 -2.76278,17.0015 -2.81177,17.0854 C-2.86076,17.1694 -2.94474,17.2639 -3.06372,17.3689 C-3.1827,17.4739 -3.36117,17.5824 -3.59912,17.6943 C-4.07503,17.8763 -4.82389,18.0513 -5.8457,18.2192 C-6.3776,18.3172 -7.02148,18.3872 -7.77734,18.4292 C-8.5332,18.4712 -9.41504,18.4922 -10.4229,18.4922 L-11.3887,18.4922 L-13.8872,18.4922 L-13.8872,-7.68994 C-13.8172,-7.75993 -13.7367,-7.84391 -13.6458,-7.94189 C-13.5548,-8.03988 -13.4603,-8.08887 -13.3623,-8.08887 C-12.8304,-8.08887 -12.3685,-8.07137 -11.9766,-8.03638 C-11.5846,-8.00138 -11.2487,-7.95939 -10.9688,-7.9104 C-10.6888,-7.86141 -10.4473,-7.80192 -10.2444,-7.73193 C-10.0414,-7.66195 -9.86296,-7.59196 -9.70898,-7.52197 C-9.54102,-7.45199 -9.39754,-7.3925 -9.27856,-7.34351 C-9.15959,-7.29451 -9.03361,-7.25952 -8.90063,-7.23853 C-8.76766,-7.21753 -8.62419,-7.22103 -8.47021,-7.24902 C-8.31624,-7.27702 -8.12728,-7.34001 -7.90332,-7.43799 C-7.81934,-7.18604 -7.65137,-6.87809 -7.39941,-6.51416 C-7.24544,-6.33219 -7.14046,-6.17472 -7.08447,-6.04175 C-7.02848,-5.90877 -7.00049,-5.79329 -7.00049,-5.69531 C-7.00049,-5.52734 -6.9375,-5.39437 -6.81152,-5.29639 C-6.68555,-5.1984 -6.53158,-5.11092 -6.34961,-5.03394 C-6.16764,-4.95695 -5.97168,-4.88696 -5.76172,-4.82397 C-5.55176,-4.76099 -5.36629,-4.6875 -5.20532,-4.60352 C-5.04435,-4.51953 -4.92188,-4.41805 -4.83789,-4.29907 C-4.75391,-4.18009 -4.74691,-4.02262 -4.81689,-3.82666 C-4.92887,-3.50472 -5.07235,-3.25627 -5.24731,-3.0813 C-5.42228,-2.90633 -5.59025,-2.73836 -5.75122,-2.57739 C-5.91219,-2.41642 -6.04517,-2.23796 -6.15015,-2.04199 C-6.25513,-1.84603 -6.28662,-1.56608 -6.24463,-1.20215 C-6.24463,-1.09017 -6.20614,-0.939697 -6.12915,-0.750732 C-6.05216,-0.561768 -5.95068,-0.351807 -5.82471,-0.12085 C-5.69873,0.110107 -5.56226,0.362061 -5.41528,0.63501 C-5.26831,0.907959 -5.12484,1.17741 -4.98486,1.44336 C-4.83089,1.72331 -4.68742,2.00326 -4.55444,2.2832 C-4.42147,2.56315 -4.32699,2.8326 -4.271,3.09155 C-4.21501,3.3505 -4.20101,3.59196 -4.229,3.81592 C-4.257,4.03988 -4.34798,4.23584 -4.50195,4.40381 C-4.57194,4.94971 -4.57544,5.39762 -4.51245,5.74756 C-4.44946,6.09749 -4.35148,6.38794 -4.21851,6.6189 C-4.08553,6.84985 -3.92806,7.04232 -3.74609,7.19629 C-3.56413,7.35026 -3.39616,7.50773 -3.24219,7.6687 C-3.08822,7.82967 -2.96224,8.00814 -2.86426,8.2041 C-2.76628,8.40007 -2.72428,8.65902 -2.73828,8.98096 C-2.76628,9.21891 -2.80477,9.41838 -2.85376,9.57935 C-2.90275,9.74032 -2.96224,9.88379 -3.03223,10.0098 C-3.10221,10.1357 -3.1827,10.2582 -3.27368,10.3772 C-3.36466,10.4962 -3.45915,10.6326 -3.55713,10.7866 C-3.65511,10.9406 -3.74959,11.1086 -3.84058,11.2905 C-3.93156,11.4725 -4.01204,11.7035 -4.08203,11.9834 C-4.15202,12.2633 -4.20801,12.6063 -4.25,13.0122 C-4.29199,13.4181 -4.31299,13.908 -4.31299,14.4819 C-4.31299,14.5799 -4.19401,14.7549 -3.95605,15.0068 C-3.81608,15.1468 -3.7041,15.2553 -3.62012,15.3323 C-3.53613,15.4093 -3.47314,15.4827 -3.43115,15.5527 M-2.54932,-0.929199 C-2.84326,-1.01318 -3.12671,-1.09717 -3.39966,-1.18115 C-3.67261,-1.26514 -3.91756,-1.35962 -4.13452,-1.4646 C-4.35148,-1.56958 -4.52295,-1.68506 -4.64893,-1.81104 C-4.7749,-1.93701 -4.83789,-2.08398 -4.83789,-2.25195 C-4.83789,-2.27995 -4.85189,-2.33244 -4.87988,-2.40942 C-4.90788,-2.48641 -4.93937,-2.5634 -4.97437,-2.64038 C-5.00936,-2.71737 -5.04085,-2.79435 -5.06885,-2.87134 C-5.09684,-2.94832 -5.11084,-3.00081 -5.11084,-3.02881 C-5.09684,-3.11279 -5.06535,-3.18978 -5.01636,-3.25977 C-4.96737,-3.32975 -4.91838,-3.41024 -4.86938,-3.50122 C-4.82039,-3.5922 -4.7714,-3.70068 -4.72241,-3.82666 C-4.67342,-3.95264 -4.64893,-4.10661 -4.64893,-4.28857 C-4.64893,-4.41455 -4.60343,-4.58252 -4.51245,-4.79248 C-4.42147,-5.00244 -4.34098,-5.13542 -4.271,-5.19141 C-4.15902,-5.26139 -4.07153,-5.31388 -4.00854,-5.34888 C-3.94556,-5.38387 -3.89307,-5.40837 -3.85107,-5.42236 C-3.80908,-5.43636 -3.77409,-5.44336 -3.74609,-5.44336 C-3.7181,-5.44336 -3.68311,-5.44336 -3.64111,-5.44336 C-3.37516,-5.52734 -3.00423,-5.51335 -2.52832,-5.40137 C-2.29036,-5.37337 -2.0839,-5.34188 -1.90894,-5.30688 C-1.73397,-5.27189 -1.5765,-5.2334 -1.43652,-5.19141 C-1.22656,-5.09342 -0.946615,-5.11442 -0.59668,-5.25439 C-0.428711,-5.31038 -0.27124,-5.34538 -0.124268,-5.35938 C0.0227051,-5.37337 0.138184,-5.35938 0.222168,-5.31738 C0.404134,-5.31738 0.80306,-5.27539 1.41895,-5.19141 C1.97884,-5.10742 2.39876,-5.06543 2.67871,-5.06543 C2.79069,-5.17741 2.97965,-5.2404 3.24561,-5.25439 C3.51156,-5.26839 3.77751,-5.25439 4.04346,-5.2124 C4.30941,-5.17041 4.54386,-5.11442 4.74683,-5.04443 C4.94979,-4.97445 5.05127,-4.91146 5.05127,-4.85547 C5.09326,-4.65951 5.11426,-4.51253 5.11426,-4.41455 C5.15625,-4.26058 5.18075,-4.1276 5.18774,-4.01563 C5.19474,-3.90365 5.19124,-3.80566 5.17725,-3.72168 C5.16325,-3.6377 5.13525,-3.53621 5.09326,-3.41724 C5.05127,-3.29826 4.99528,-3.16878 4.92529,-3.02881 C4.71533,-2.79085 4.55436,-2.5389 4.44238,-2.27295 C4.3304,-2.007 4.27441,-1.77604 4.27441,-1.58008 C4.27441,-1.34212 4.20793,-1.14966 4.07495,-1.00269 C3.94198,-0.855713 3.74951,-0.71224 3.49756,-0.572266 C3.34359,-0.502279 3.12663,-0.558268 2.84668,-0.740234 C2.80469,-0.782227 2.7207,-0.726237 2.59473,-0.572266 C2.46875,-0.390299 2.32178,-0.320313 2.15381,-0.362305 L1.88086,-0.362305 C1.46094,-0.362305 1.1355,-0.33431 0.904541,-0.27832 C0.673584,-0.222331 0.470622,-0.162842 0.295654,-0.0998535 C0.120687,-0.0368652 -0.0577799,0.015625 -0.239746,0.0576172 C-0.421712,0.0996094 -0.659668,0.106608 -0.953613,0.0786133 C-1.10758,0.0786133 -1.34554,-0.0613607 -1.66748,-0.341309 C-1.98942,-0.621257 -2.20638,-0.789225 -2.31836,-0.845215 C-2.34635,-0.901204 -2.42334,-0.929199 -2.54932,-0.929199 "/>
</g>

<g fill="#b75800" fill-opacity="1" stroke="none" transform="matrix(1,0,0,1,0,0)"
font-family="MS Shell Dlg 2" font-size="7.8" font-weight="400" font-style="normal" 
>
</g>
</g>
</svg>
